X:43
T:Maraichine
C:D. Gravouille
M:4/4
L:1/4
K:G
G F/E/ D G/G/|G F/E/D2|GF/G/ Ac|1BABG:|2 B~AG2\
|:GF/G/ Ac|BABG/G/|GF/G/ Ac|B~AG2:|
